X:129
M:2/4
L:1/8
K:G
|:B|(g/f/e/f/) (g/f/e/f/)|gBgB|(g/f/e/f/) (g/f/e/f/)|aAaA|(g/f/e/f/) (g/f/e/f/)|gBdB|(c/A/c) (B/G/F)|G2 G,:|

